communes/69.svg

<?xml version="1.0" encoding="UTF-8" standalone="no"?>
<!-- Created with Inkscape (http://www.inkscape.org/) -->
<svg
   xmlns:svg="http://www.w3.org/2000/svg"
   xmlns="http://www.w3.org/2000/svg"
   version="1.0"
   width="215.6507"
   height="252.60123"
   id="svg2780">
  <defs
     id="defs2782" />
  <g
     transform="translate(-17.704646,-804.53568)"
     id="layer1">
    <path
       d="M 18.704646,805.53568 L 22.5892,968.71783 C 25.363874,1085.2766 225.6961,1085.2766 228.47079,968.71783 L 232.35534,805.53568 L 18.704646,805.53568 z "
       style="fill:#fcdc27;fill-opacity:1;fill-rule:evenodd;stroke:#000000;stroke-width:2;stroke-linecap:butt;stroke-miterlimit:4;stroke-dashoffset:0;stroke-opacity:1"
       id="path3282" />
    <path
       d="M 133.66542,853.20035 L 128.55555,848.09048 L 135.07504,841.57101 L 127.49832,833.99429 L 112.52113,848.97149 L 128.90795,865.35832 L 137.36568,856.90061 L 143.00415,862.53908 L 134.54642,870.99679 L 142.12312,878.57349 L 176.30637,844.39024 L 168.72967,836.81355 L 160.27196,845.27126 L 154.63348,839.6328 L 163.0912,831.17508 L 146.70437,814.78825 L 131.72717,829.76544 L 139.30388,837.34215 L 145.82336,830.82268 L 150.93324,835.93254 L 133.66542,853.20035 z "
       style="fill:#2163c5;fill-opacity:1;fill-rule:evenodd;stroke:#000000;stroke-width:1px;stroke-linecap:butt;stroke-linejoin:miter;stroke-opacity:1"
       id="path4993" />
    <path
       d="M 416.89106 1.0864651 A 7.6002254 4.7345667 0 1 1  401.69061,1.0864651 A 7.6002254 4.7345667 0 1 1  416.89106 1.0864651 z"
       transform="matrix(0.7071068,0.7071068,-0.7071068,0.7071068,-91.6339,545.3114)"
       style="opacity:1;color:#000000;fill:#2163c5;fill-opacity:1;fill-rule:evenodd;stroke:#000000;stroke-width:0.99921256;stroke-linecap:butt;stroke-linejoin:miter;marker:none;marker-start:none;marker-mid:none;marker-end:none;stroke-miterlimit:4;stroke-dasharray:none;stroke-dashoffset:0;stroke-opacity:1;visibility:visible;display:inline;overflow:visible;enable-background:accumulate"
       id="path5009" />
    <path
       d="M 40.453747,935.98142 L 96.520992,935.98142 L 96.520992,992.04865 L 40.453731,992.04866 L 40.453747,935.98142 z M 82.386422,950.09388 C 79.128088,946.83555 73.884672,946.79579 70.674966,950.0055 C 69.5171,951.16336 68.800991,952.59394 68.487354,954.09346 C 68.174191,952.59361 67.458542,951.1643 66.299741,950.00549 C 63.09004,946.79579 57.846618,946.83555 54.588285,950.09388 C 51.329951,953.35222 51.268136,958.6177 54.477835,961.8274 C 55.635703,962.98527 57.066279,963.70138 58.565755,964.01506 C 57.065911,964.32822 55.636608,965.04385 54.477801,966.20266 C 51.268102,969.41236 51.307891,974.65575 54.566225,977.91408 C 57.824559,981.17241 63.090044,981.2343 66.299743,978.0246 C 67.45763,976.86671 68.17371,975.43616 68.487347,973.93665 C 68.80102,975.43612 69.517135,976.8667 70.675001,978.02457 C 73.8847,981.23427 79.150185,981.17245 82.408519,977.91412 C 85.666853,974.65578 85.706606,969.41236 82.496907,966.20266 C 81.338115,965.04387 79.90879,964.32821 78.408946,964.01505 C 79.908458,963.70141 81.339041,962.9853 82.496907,961.82744 C 85.706606,958.61774 85.644749,953.35222 82.386422,950.09388 z "
       style="color:#000000;fill:#2163c5;fill-opacity:1;fill-rule:evenodd;stroke:#000000;stroke-width:1.00000012px;stroke-linecap:butt;stroke-linejoin:miter;marker:none;marker-start:none;marker-mid:none;marker-end:none;stroke-miterlimit:4;stroke-dashoffset:0;stroke-opacity:1;visibility:visible;display:inline;overflow:visible;enable-background:accumulate"
       id="rect6953" />
    <rect
       width="25.666334"
       height="9.2199459"
       rx="4.609973"
       ry="4.609973"
       x="717.25629"
       y="591.26923"
       transform="matrix(0.7071068,0.7071068,-0.7071068,0.7071068,0,0)"
       style="opacity:1;color:#000000;fill:#2163c5;fill-opacity:1;fill-rule:evenodd;stroke:#000000;stroke-width:1.00000012px;stroke-linecap:butt;stroke-linejoin:miter;marker:none;marker-start:none;marker-mid:none;marker-end:none;stroke-miterlimit:4;stroke-dasharray:none;stroke-dashoffset:0;stroke-opacity:1;visibility:visible;display:inline;overflow:visible;enable-background:accumulate"
       id="rect5980" />
    <rect
       width="44.106228"
       height="44.106228"
       x="46.434235"
       y="941.96191"
       style="opacity:1;color:#000000;fill:none;fill-opacity:1;fill-rule:evenodd;stroke:#000000;stroke-width:1.00000012px;stroke-linecap:butt;stroke-linejoin:miter;marker:none;marker-start:none;marker-mid:none;marker-end:none;stroke-miterlimit:4;stroke-dasharray:none;stroke-dashoffset:0;stroke-opacity:1;visibility:visible;display:inline;overflow:visible;enable-background:accumulate"
       id="rect6955" />
    <path
       d="M 120.85605 227.34891 A 9.2199459 4.9837542 0 1 1  102.41615,227.34891 A 9.2199459 4.9837542 0 1 1  120.85605 227.34891 z"
       transform="matrix(0.7357732,-0.7357732,0.8662058,0.8662058,-182.74242,877.0629)"
       style="color:#000000;fill:#2163c5;fill-opacity:1;fill-rule:evenodd;stroke:#000000;stroke-width:0.88503486;stroke-linecap:butt;stroke-linejoin:miter;marker:none;marker-start:none;marker-mid:none;marker-end:none;stroke-miterlimit:4;stroke-dasharray:none;stroke-dashoffset:0;stroke-opacity:1;visibility:visible;display:inline;overflow:visible;enable-background:accumulate"
       id="path6959" />
    <path
       d="M 120.85605 227.34891 A 9.2199459 4.9837542 0 1 1  102.41615,227.34891 A 9.2199459 4.9837542 0 1 1  120.85605 227.34891 z"
       transform="matrix(0.7357732,-0.7357732,0.8662058,0.8662058,-238.42236,821.38296)"
       style="color:#000000;fill:#2163c5;fill-opacity:1;fill-rule:evenodd;stroke:#000000;stroke-width:0.88503486;stroke-linecap:butt;stroke-linejoin:miter;marker:none;marker-start:none;marker-mid:none;marker-end:none;stroke-miterlimit:4;stroke-dasharray:none;stroke-dashoffset:0;stroke-opacity:1;visibility:visible;display:inline;overflow:visible;enable-background:accumulate"
       id="path6961" />
    <path
       d="M 120.85605 227.34891 A 9.2199459 4.9837542 0 1 1  102.41615,227.34891 A 9.2199459 4.9837542 0 1 1  120.85605 227.34891 z"
       transform="matrix(0.7357732,0.7357732,-0.8662058,0.8662058,155.43953,712.78524)"
       style="color:#000000;fill:#2163c5;fill-opacity:1;fill-rule:evenodd;stroke:#000000;stroke-width:0.88503486;stroke-linecap:butt;stroke-linejoin:miter;marker:none;marker-start:none;marker-mid:none;marker-end:none;stroke-miterlimit:4;stroke-dasharray:none;stroke-dashoffset:0;stroke-opacity:1;visibility:visible;display:inline;overflow:visible;enable-background:accumulate"
       id="path6973" />
    <path
       d="M 167.85762,934.08373 C 159.31733,943.46328 136.14103,972.21759 139.01383,973.13918 C 141.88663,974.06076 161.56002,950.06675 167.85762,934.08373 z "
       style="opacity:1;color:#000000;fill:#2163c5;fill-opacity:1;fill-rule:evenodd;stroke:#000000;stroke-width:1.00000012px;stroke-linecap:butt;stroke-linejoin:round;marker:none;marker-start:none;marker-mid:none;marker-end:none;stroke-miterlimit:4;stroke-dasharray:none;stroke-dashoffset:0;stroke-opacity:1;visibility:visible;display:inline;overflow:visible;enable-background:accumulate"
       id="path8004" />
    <path
       d="M 152.2537,161.81254 C 124.41247,139.10104 105.14621,136.20237 94.098596,108.97222 C 92.66866,105.44771 98.498615,101.50302 101.10129,101.62753 C 114.16654,102.25254 137.80081,93.784296 137.80081,93.784296 L 167.30304,133.28621 L 152.2537,161.81254 z "
       transform="translate(0,804.33069)"
       style="fill:#dcbc8c;fill-opacity:1;fill-rule:evenodd;stroke:#000000;stroke-width:1px;stroke-linecap:butt;stroke-linejoin:miter;stroke-opacity:1"
       id="path7009" />
    <rect
       width="16.695578"
       height="135.80731"
       x="721.7417"
       y="455.46191"
       transform="matrix(0.7071068,0.7071068,-0.7071068,0.7071068,0,0)"
       style="opacity:1;color:#000000;fill:#2163c5;fill-opacity:1;fill-rule:evenodd;stroke:#000000;stroke-width:0.99921256;stroke-linecap:butt;stroke-linejoin:miter;marker:none;marker-start:none;marker-mid:none;marker-end:none;stroke-miterlimit:4;stroke-dasharray:none;stroke-dashoffset:0;stroke-opacity:1;visibility:visible;display:inline;overflow:visible;enable-background:accumulate"
       id="rect5007" />
    <path
       d="M 101.29479,905.83981 C 98.429142,904.84305 91.281265,910.52994 94.983276,913.84405 C 101.0985,919.31851 105.28643,921.82378 109.89177,924.77807 C 112.3061,926.32684 115.99688,925.15185 114.75093,920.91566 L 101.29479,905.83981 z "
       style="opacity:1;color:#000000;fill:#dcbc8c;fill-opacity:1;fill-rule:evenodd;stroke:#000000;stroke-width:1px;stroke-linecap:butt;stroke-linejoin:miter;marker:none;marker-start:none;marker-mid:none;marker-end:none;stroke-miterlimit:4;stroke-dasharray:none;stroke-dashoffset:0;stroke-opacity:1;visibility:visible;display:inline;overflow:visible;enable-background:accumulate"
       id="path7988" />
    <path
       d="M 106.52774,896.74446 C 102.54074,894.75095 97.836153,901.48602 100.67184,905.34143 C 106.59326,913.39224 106.41484,914.96013 115.24931,921.66322 C 117.89223,923.66852 124.09548,921.91241 119.98388,916.55487 L 106.52774,896.74446 z "
       style="opacity:1;color:#000000;fill:#dcbc8c;fill-opacity:1;fill-rule:evenodd;stroke:#000000;stroke-width:1px;stroke-linecap:butt;stroke-linejoin:miter;marker:none;marker-start:none;marker-mid:none;marker-end:none;stroke-miterlimit:4;stroke-dasharray:none;stroke-dashoffset:0;stroke-opacity:1;visibility:visible;display:inline;overflow:visible;enable-background:accumulate"
       id="path7986" />
    <path
       d="M 114.00338,84.564351 C 110.51475,82.94463 104.70201,88.449266 106.15397,92.164576 C 110.39016,103.00424 112.27076,106.64244 121.10523,113.34553 C 123.74815,115.35083 129.32843,111.60122 125.21683,106.24368 L 114.00338,84.564351 z "
       transform="translate(0,804.33069)"
       style="opacity:1;color:#000000;fill:#dcbc8c;fill-opacity:1;fill-rule:evenodd;stroke:#000000;stroke-width:1px;stroke-linecap:butt;stroke-linejoin:miter;marker:none;marker-start:none;marker-mid:none;marker-end:none;stroke-miterlimit:4;stroke-dasharray:none;stroke-dashoffset:0;stroke-opacity:1;visibility:visible;display:inline;overflow:visible;enable-background:accumulate"
       id="path7984" />
    <path
       d="M 137.42703,84.938132 C 122.38232,71.232807 112.34791,76.388525 113.6296,83.069224 C 116.49939,98.027794 114.01067,94.83463 121.8528,103.8764 C 129.38841,112.56476 133.9384,104.12558 128.08249,97.895894 C 121.0616,90.436208 124.48143,92.281104 125.46602,90.171074 L 137.42703,84.938132 z "
       transform="translate(0,804.33069)"
       style="opacity:1;color:#000000;fill:#dcbc8c;fill-opacity:1;fill-rule:evenodd;stroke:#000000;stroke-width:1px;stroke-linecap:butt;stroke-linejoin:miter;marker:none;marker-start:none;marker-mid:none;marker-end:none;stroke-miterlimit:4;stroke-dasharray:none;stroke-dashoffset:0;stroke-opacity:1;visibility:visible;display:inline;overflow:visible;enable-background:accumulate"
       id="path7982" />
    <path
       d="M 183.71875,144.5 L 157.9375,183.78125 L 202.6875,223.90625 C 215.80391,211.57212 224.99898,195.13778 227.6875,174.625 L 183.71875,144.5 z "
       transform="translate(1.0019939e-5,804.33069)"
       style="opacity:1;color:#000000;fill:#2163c5;fill-opacity:1;fill-rule:evenodd;stroke:#000000;stroke-width:1.00000012px;stroke-linecap:butt;stroke-linejoin:miter;marker:none;marker-start:none;marker-mid:none;marker-end:none;stroke-miterlimit:4;stroke-dasharray:none;stroke-dashoffset:0;stroke-opacity:1;visibility:visible;display:inline;overflow:visible;enable-background:accumulate"
       id="path8018" />
    <path
       d="M 167.30304,133.28621 C 154.08786,120.07103 161.96125,107.36259 153.1073,98.538936 C 146.44736,91.902205 138.99341,83.230711 134.79478,83.28232 C 131.09062,83.327851 123.42347,82.225106 122.36625,81.344094 C 121.30904,80.463083 118.26199,80.888473 119.4954,84.588722 C 120.72882,88.288971 128.06735,91.914491 133.73757,93.14965 C 135.1081,96.264496 139.46835,103.27508 141.66667,104.95521 C 135.06319,108.19465 132.79242,118.84282 134.66133,125.1971"
       transform="translate(0,804.33069)"
       style="opacity:1;color:#000000;fill:#dcbc8c;fill-opacity:1;fill-rule:evenodd;stroke:#000000;stroke-width:1px;stroke-linecap:round;stroke-linejoin:miter;marker:none;marker-start:none;marker-mid:none;marker-end:none;stroke-miterlimit:4;stroke-dasharray:none;stroke-dashoffset:0;stroke-opacity:1;visibility:visible;display:inline;overflow:visible;enable-background:accumulate"
       id="path7980" />
    <path
       d="M 167.85762,934.08373 L 185.54994,948.28743 C 179.25234,964.27045 159.45436,990.38256 156.58156,989.46098 L 139.01383,973.13918 C 141.88663,974.06076 161.56002,950.06675 167.85762,934.08373 z "
       style="opacity:1;color:#000000;fill:#2163c5;fill-opacity:1;fill-rule:evenodd;stroke:#000000;stroke-width:1.00000012px;stroke-linecap:butt;stroke-linejoin:round;marker:none;marker-start:none;marker-mid:none;marker-end:none;stroke-miterlimit:4;stroke-dasharray:none;stroke-dashoffset:0;stroke-opacity:1;visibility:visible;display:inline;overflow:visible;enable-background:accumulate"
       id="path8011" />
  </g>
</svg>

<?xml version="1.0" encoding="UTF-8"?>
<svg version="1.0" viewBox="0 0 215.65 252.6" xmlns="http://www.w3.org/2000/svg">
<g transform="translate(-17.705 -804.54)" stroke="#000">
<path d="m18.705 805.54 3.8846 163.18c2.7747 116.56 203.11 116.56 205.88 0l3.8846-163.18h-213.65z" fill="#fcdc27" fill-rule="evenodd" stroke-width="2"/>
<path d="m133.67 853.2-5.1099-5.1099 6.5195-6.5195-7.5767-7.5767-14.977 14.977 16.387 16.387 8.4577-8.4577 5.6385 5.6385-8.4577 8.4577 7.5767 7.5767 34.183-34.183-7.5767-7.5767-8.4577 8.4577-5.6385-5.6385 8.4577-8.4577-16.387-16.387-14.977 14.977 7.5767 7.5767 6.5195-6.5195 5.1099 5.1099-17.268 17.268z" fill="#2163c5" fill-rule="evenodd" stroke-width="1px"/>
<path transform="matrix(.70711 .70711 -.70711 .70711 -91.634 545.31)" d="m416.89 1.0865a7.6002 4.7346 0 1 1-15.2 0 7.6002 4.7346 0 1 1 15.2 0z" color="#000000" fill="#2163c5" fill-rule="evenodd" stroke-width=".99921"/>
<path d="m40.454 935.98h56.067v56.067l-56.067 1e-5 1.6e-5 -56.067zm41.933 14.112c-3.2583-3.2583-8.5018-3.2981-11.711-0.08838-1.1579 1.1579-1.874 2.5884-2.1876 4.088-0.31316-1.4998-1.0288-2.9292-2.1876-4.088-3.2097-3.2097-8.4531-3.1699-11.711 0.08839-3.2583 3.2583-3.3201 8.5238-0.11045 11.734 1.1579 1.1579 2.5884 1.874 4.0879 2.1877-1.4998 0.31316-2.9291 1.0288-4.088 2.1876-3.2097 3.2097-3.1699 8.4531 0.088424 11.711s8.5238 3.3202 11.734 0.11052c1.1579-1.1579 1.874-2.5884 2.1876-4.088 0.31367 1.4995 1.0298 2.93 2.1877 4.0879 3.2097 3.2097 8.4752 3.1479 11.734-0.11045 3.2583-3.2583 3.2981-8.5018 0.088388-11.711-1.1588-1.1588-2.5881-1.8744-4.088-2.1876 1.4995-0.31364 2.9301-1.0298 4.088-2.1876 3.2097-3.2097 3.1478-8.4752-0.11048-11.734z" color="#000000" fill="#2163c5" fill-rule="evenodd" stroke-width="1px"/>
<rect transform="matrix(.70711 .70711 -.70711 .70711 0 0)" x="717.26" y="591.27" width="25.666" height="9.2199" rx="4.61" ry="4.61" color="#000000" fill="#2163c5" fill-rule="evenodd" stroke-width="1px"/>
<rect x="46.434" y="941.96" width="44.106" height="44.106" color="#000000" fill="none" stroke-width="1px"/>
<path transform="matrix(.73577 -.73577 .86621 .86621 -182.74 877.06)" d="m120.86 227.35a9.2199 4.9838 0 1 1-18.44 0 9.2199 4.9838 0 1 1 18.44 0z" color="#000000" fill="#2163c5" fill-rule="evenodd" stroke-width=".88503"/>
<path transform="matrix(.73577 -.73577 .86621 .86621 -238.42 821.38)" d="m120.86 227.35a9.2199 4.9838 0 1 1-18.44 0 9.2199 4.9838 0 1 1 18.44 0z" color="#000000" fill="#2163c5" fill-rule="evenodd" stroke-width=".88503"/>
<path transform="matrix(.73577 .73577 -.86621 .86621 155.44 712.79)" d="m120.86 227.35a9.2199 4.9838 0 1 1-18.44 0 9.2199 4.9838 0 1 1 18.44 0z" color="#000000" fill="#2163c5" fill-rule="evenodd" stroke-width=".88503"/>
<path d="m167.86 934.08c-8.5403 9.3796-31.717 38.134-28.844 39.055 2.8728 0.92158 22.546-23.072 28.844-39.055z" color="#000000" fill="#2163c5" fill-rule="evenodd" stroke-linejoin="round" stroke-width="1px"/>
<path transform="translate(0 804.33)" d="m152.25 161.81c-27.841-22.712-47.107-25.61-58.155-52.84-1.4299-3.5245 4.4-7.4692 7.0027-7.3447 13.065 0.62501 36.7-7.8432 36.7-7.8432l29.502 39.502-15.049 28.526z" fill="#dcbc8c" fill-rule="evenodd" stroke-width="1px"/>
<rect transform="matrix(.70711 .70711 -.70711 .70711 0 0)" x="721.74" y="455.46" width="16.696" height="135.81" color="#000000" fill="#2163c5" fill-rule="evenodd" stroke-width=".99921"/>
<path d="m101.29 905.84c-2.8656-0.99676-10.014 4.6901-6.3115 8.0042 6.1152 5.4745 10.303 7.9797 14.908 10.934 2.4143 1.5488 6.1051 0.37378 4.8592-3.8624l-13.456-15.076z" color="#000000" fill="#dcbc8c" fill-rule="evenodd" stroke-width="1px"/>
<path d="m106.53 896.74c-3.987-1.9935-8.6916 4.7416-5.8559 8.597 5.9214 8.0508 5.743 9.6187 14.577 16.322 2.6429 2.0053 8.8462 0.24919 4.7346-5.1084l-13.456-19.81z" color="#000000" fill="#dcbc8c" fill-rule="evenodd" stroke-width="1px"/>
<path transform="translate(0 804.33)" d="m114 84.564c-3.4886-1.6197-9.3014 3.8849-7.8494 7.6002 4.2362 10.84 6.1168 14.478 14.951 21.181 2.6429 2.0053 8.2232-1.7443 4.1116-7.1018l-11.213-21.679z" color="#000000" fill="#dcbc8c" fill-rule="evenodd" stroke-width="1px"/>
<path transform="translate(0 804.33)" d="m137.43 84.938c-15.045-13.705-25.079-8.5496-23.797-1.8689 2.8698 14.959 0.38107 11.765 8.2232 20.807 7.5356 8.6884 12.086 0.24918 6.2297-5.9805-7.0209-7.4597-3.6011-5.6148-2.6165-7.7248l11.961-5.2329z" color="#000000" fill="#dcbc8c" fill-rule="evenodd" stroke-width="1px"/>
<path transform="translate(1.002e-5 804.33)" d="m183.72 144.5-25.781 39.281 44.75 40.125c13.116-12.334 22.311-28.768 25-49.281l-43.969-30.125z" color="#000000" fill="#2163c5" fill-rule="evenodd" stroke-width="1px"/>
<path transform="translate(0 804.33)" d="m167.3 133.29c-13.215-13.215-5.3418-25.924-14.196-34.747-6.6599-6.6367-14.114-15.308-18.313-15.257-3.7042 0.045531-11.371-1.0572-12.429-1.9382-1.0572-0.88101-4.1043-0.45562-2.8708 3.2446 1.2334 3.7002 8.572 7.3258 14.242 8.5609 1.3705 3.1148 5.7308 10.125 7.9291 11.806-6.6035 3.2394-8.8742 13.888-7.0053 20.242" color="#000000" fill="#dcbc8c" fill-rule="evenodd" stroke-linecap="round" stroke-width="1px"/>
<path d="m167.86 934.08 17.692 14.204c-6.2976 15.983-26.096 42.095-28.968 41.174l-17.568-16.322c2.8728 0.92158 22.546-23.072 28.844-39.055z" color="#000000" fill="#2163c5" fill-rule="evenodd" stroke-linejoin="round" stroke-width="1px"/>
</g>
</svg>
